X:602
T:O'Neill's March
M:2/4
L:1/8
R:March
K:G
B2g2|f2a2|e2g2|gfed::eee2|fedB|e2e2|fedB::A2AB|G2GG|A2e2|edB2:|
